src/assets/Logo.svg

<svg width="100%" height="100%" viewBox="0 0 58 62" fill="none" xmlns="http://www.w3.org/2000/svg">
<path id="white-stroke" d="M3.61717e-05 3.42583e-06C-5.50505e-05 15.8482 5.76581e-05 51.4436 3.61717e-05 61.9997C3.45547 61.9997 4.00838 61.9719 6.30321 61.9997C7.39563 62.0129 7.99872 61.6366 8.95718 61.1084C9.80784 60.6396 10.2955 60.3238 10.92 59.5765C11.4125 58.9871 11.6252 58.5903 11.9152 57.8775L11.9402 57.8163C12.2088 57.1567 12.3782 56.7409 12.3852 56.0114C12.5558 38.2702 12.3852 16.0987 12.3852 11.5309H37.045C38.3915 11.5309 39.1488 11.8901 40.3624 12.4779C41.5151 13.0362 42.1822 13.4199 43.044 14.3719C43.779 15.1837 44.1087 15.7452 44.5092 16.7672C44.902 17.7692 44.9665 18.3959 45.0622 19.4689C45.1375 20.3139 45.1739 20.8005 45.0622 21.6414C44.9523 22.4678 44.852 22.9435 44.5092 23.7025C44.1707 24.4521 43.8791 24.831 43.3481 25.4572C42.7972 26.107 42.4417 26.4463 41.7447 26.9334C40.9273 27.5045 40.3945 27.7328 39.4501 28.0475C38.5616 28.3435 38.026 28.3826 37.1003 28.521C35.2188 28.8023 32.0132 28.7439 32.0132 28.7439C33.3124 29.2453 36.7348 30.4363 39.1184 32.3089C41.5379 34.2098 43.1546 36.9324 44.2881 38.2693C44.3825 38.3807 46.0447 37.7533 47.1079 37.2666C48.1686 36.7811 48.758 36.472 49.7066 35.7905C50.6716 35.0971 51.1509 34.617 51.9735 33.7572C52.836 32.8558 53.3084 32.3242 53.9916 31.2784C54.6607 30.2543 54.9506 29.6203 55.4292 28.4931C55.9179 27.342 56.156 26.6732 56.4521 25.4572C56.7257 24.3335 56.808 23.6839 56.9221 22.5327C57.0401 21.3413 57.052 20.666 57.0326 19.4689C57.0114 18.1493 56.986 17.4027 56.7838 16.0987C56.5677 14.7043 56.3851 13.923 55.9268 12.5893C55.4653 11.2461 55.1427 10.5039 54.434 9.27488C53.666 7.94307 53.1648 7.21632 52.1117 6.0997C51.0548 4.97896 50.3505 4.44587 49.0708 3.59297C47.6935 2.67508 46.8417 2.26744 45.311 1.6433C43.7945 1.02499 42.9067 0.740214 41.3024 0.417791C39.6642 0.0885595 38.7154 4.94637e-06 37.045 3.42583e-06C22.8903 -9.45827e-06 12.3852 1.931e-05 3.61717e-05 3.42583e-06Z" fill="#f1f5f9"/>
<path d="M22.3097 36.1526C20.5404 33.7573 18.9093 31.5013 16.6147 28.1033C19.9598 28.1033 22.9179 28.1032 26.9818 28.1033C28.5867 28.1033 29.5015 28.1661 31.0733 28.4932C31.9274 28.6709 32.4062 28.7889 33.2297 29.0781C34.0743 29.3747 34.5261 29.6034 35.3307 29.9972C36.1476 30.3971 36.6048 30.6289 37.3765 31.1113C38.14 31.5887 38.5854 31.8723 39.2842 32.4415C39.8965 32.9401 40.1931 33.2516 40.7492 33.813C41.2946 34.3635 41.5765 34.6964 42.0762 35.2892C43.07 36.4681 43.5263 37.2111 44.4261 38.4644C49.5681 47.0987 49.5681 47.0987 58 61.9997H45.366C40.4175 51.8893 40.3898 51.8893 37.2382 45.2047C36.3158 43.7436 35.9027 42.8374 34.7778 41.5282C34.1832 40.8361 33.8216 40.4697 33.1467 39.857C32.4503 39.2247 32.059 38.858 31.2668 38.353C30.4835 37.8535 29.9963 37.6478 29.1381 37.2946C28.1424 36.8848 27.5629 36.6887 26.5118 36.459C24.9039 36.1076 23.8855 36.1526 22.3097 36.1526Z" fill="#00A6F4"/>
</svg>

<svg xmlns="http://www.w3.org/2000/svg" fill="none" viewBox="0 0 58 62"><path fill="#f1f5f9" id="white-stroke" d="M0 0v62c3.455 0 4.008-.028 6.303 0 1.093.013 1.696-.363 2.654-.892.85-.468 1.338-.784 1.963-1.531.492-.59.705-.987.995-1.7l.025-.06c.269-.66.438-1.076.445-1.806.17-17.74 0-39.912 0-44.48h24.66c1.346 0 2.104.36 3.317.947 1.153.558 1.82.942 2.682 1.894.735.812 1.065 1.373 1.465 2.395.393 1.002.458 1.629.553 2.702.076.845.112 1.331 0 2.172-.11.827-.21 1.303-.553 2.062-.338.75-.63 1.128-1.16 1.754-.552.65-.907.99-1.604 1.476-.818.572-1.35.8-2.295 1.114-.888.296-1.424.336-2.35.474-1.881.281-5.087.223-5.087.223 1.3.501 4.722 1.692 7.105 3.565 2.42 1.9 4.037 4.623 5.17 5.96.095.112 1.757-.516 2.82-1.002 1.06-.486 1.65-.795 2.599-1.477.965-.693 1.444-1.173 2.267-2.033.862-.901 1.334-1.433 2.018-2.479.669-1.024.959-1.658 1.437-2.785.489-1.151.727-1.82 1.023-3.036.274-1.123.356-1.773.47-2.924.118-1.192.13-1.867.11-3.064-.02-1.32-.046-2.066-.248-3.37-.216-1.395-.399-2.176-.857-3.51-.462-1.343-.784-2.085-1.493-3.314-.768-1.332-1.27-2.059-2.322-3.175-1.057-1.121-1.762-1.654-3.041-2.507-1.377-.918-2.23-1.326-3.76-1.95-1.517-.618-2.404-.903-4.009-1.225C39.664.088 38.715 0 37.045 0H0Z"/><path fill="#00A6F4" d="M22.31 36.153c-1.77-2.396-3.4-4.652-5.695-8.05h10.367c1.605 0 2.52.063 4.091.39.854.178 1.333.296 2.157.585.844.297 1.296.525 2.1.92.818.4 1.275.63 2.047 1.113.763.478 1.208.761 1.907 1.33.613.5.91.81 1.465 1.372.546.55.828.883 1.327 1.476.994 1.18 1.45 1.922 2.35 3.175C49.568 47.1 49.568 47.1 58 62H45.366c-4.949-10.11-4.976-10.11-8.128-16.795-.922-1.461-1.335-2.368-2.46-3.677a16.119 16.119 0 0 0-1.631-1.671c-.697-.632-1.088-.999-1.88-1.504-.784-.5-1.27-.705-2.129-1.058-.996-.41-1.575-.606-2.626-.836-1.608-.351-2.627-.306-4.202-.306Z"/></svg>
